images/添加店铺/u1865_selected.svg

<svg xmlns="http://www.w3.org/2000/svg" width="12" height="12" viewBox="565 387 12 12"><path fill="#fff" d="M571 387c3.36 0 6 2.64 6 6s-2.64 6-6 6-6-2.64-6-6 2.64-6 6-6"/><path fill="none" stroke="#797979" d="M571 387.5c3.08 0 5.5 2.42 5.5 5.5s-2.42 5.5-5.5 5.5-5.5-2.42-5.5-5.5 2.42-5.5 5.5-5.5Z"/><path fill="#797979" d="M571 396c-1.68 0-3-1.32-3-3s1.32-3 3-3 3 1.32 3 3-1.32 3-3 3"/></svg>

﻿<?xml version="1.0" encoding="utf-8"?>
<svg version="1.1" xmlns:xlink="http://www.w3.org/1999/xlink" width="12px" height="12px" viewBox="565 387  12 12" xmlns="http://www.w3.org/2000/svg">
  <path d="M 571 387  C 574.36 387  577 389.64  577 393  C 577 396.36  574.36 399  571 399  C 567.64 399  565 396.36  565 393  C 565 389.64  567.64 387  571 387  Z " fill-rule="nonzero" fill="#ffffff" stroke="none" />
  <path d="M 571 387.5  C 574.08 387.5  576.5 389.92  576.5 393  C 576.5 396.08  574.08 398.5  571 398.5  C 567.92 398.5  565.5 396.08  565.5 393  C 565.5 389.92  567.92 387.5  571 387.5  Z " stroke-width="1" stroke="#797979" fill="none" />
  <path d="M 571 396  C 569.32 396  568 394.68  568 393  C 568 391.32  569.32 390  571 390  C 572.68 390  574 391.32  574 393  C 574 394.68  572.68 396  571 396  " fill-rule="nonzero" fill="#797979" stroke="none" />
</svg>
